X:20
T:The Belles of Shadyside
R:slip jig
C: 1977, 2010 L.E. McCullough
M:9/8
L:1/8
K:Ador
AB|:c2A ABc dBG|c2A AGE G2E|c2A ABc deg|edc dBG A2B:|
|:cee gag e2d|cee dge d2G|cee gag e2d|edc dBG A2B:|
|:cee gee dBG|cEE EDE GAB|cee gee a2g|edc dBG A2B:|
<end>
<start>
